X: 35718
T: Saint Patrick's Day
R: jig
M: 6/8
K: Gmajor
|:d>ef gfe|fed edB|d>ef gfe|fed e3|
def gfe|fed edB|AGA BAG|E2F G3:|

